X: 7
T: Reel Around The Sun
R: reel
M: 4/4
L: 1/8
K: Ador
|eA B/c/d efga|bc'bg ec'bg|eage dcBc|dGGd GGdG|
|eA B/c/d efga|bc'bg ec'bg|eage dcBc|d/e/d BG A2 ee|
|eA B/c/d efga|bc'bg ec'bg|eage dcBc|dGGd GGdG|
|AAeA Bcde|fgab c'bag|eage dcBc|g/e/d GB A2 z2|


Tune 2231	Setting 11046

